X: 42527
T: Wheels Of The World, The
R: reel
M: 4/4
K: Dmixolydian
|:A ~D3 A,DAG|~ECcC EFGB|AD{A}DA FAde|~=fedc Ad{f}dc|
A ~D3 A,DAG|~ECcC EFGB|Ad{f}dB ~cBAG|1 ~EDCE D2 d^c:|2 ~EDCE D3 A||
~d2 Ad fdag|ecgc eg^ce|~d^cdf afdf|~eA^ce dcAG|
Addf afdf|ecgc acgc|eaag ed (3efg|age^c ~d=cBc|
~cBce ge^ce|~d2 ad bdad|~cBce ge^ce|eaag edAB|
~cBce ge^ce|~d2 ad bdad|eaag ed (3efg|age^c ~d3 B||

